X:276
T:Reel 276
M:4/4
K:Gmaj
L:1/8
d|B2BG BdGB|A2=fd cAFA|BGBG gedc|BdAG DGGA|BGBd gedB|ABcd AFAc|BGBd gfge|dgfc BGG|c|dggf g2dg|fgag fdef|dggf g2dg|fdcA BGGc|dggf g2ag|fdde fgaf|bgaf gfed|cefc BGG|
